tools/download-figma-icons/icons/outlined-large/lkw.svg

<svg width="64" height="64" viewBox="0 0 64 64" fill="none" xmlns="http://www.w3.org/2000/svg">
<path d="M63.8296 31.3067L58.3907 20.8798C57.7857 19.7209 56.5957 18.9999 55.2878 18.9999H43V15.4999C43 13.57 41.43 12 39.5 12H3.50067C1.5707 12 0.000732422 13.57 0.000732422 15.4999V42.4995C0.000732422 44.4294 1.5707 45.9994 3.50067 45.9994H7.5806C8.06859 49.3853 10.9815 51.9993 14.5005 51.9993C18.0194 51.9993 20.9324 49.3853 21.4204 45.9994H45.0799C45.5679 49.3853 48.4809 51.9993 51.9998 51.9993C55.5187 51.9993 58.4317 49.3853 58.9197 45.9994H60.4997C62.4296 45.9994 63.9996 44.4294 63.9996 42.4995V31.9996C63.9996 31.7587 63.9406 31.5207 63.8296 31.3067ZM55.7297 22.2678L60.2857 30.9997H48.9999V21.9998H55.2878C55.4747 21.9998 55.6437 22.1028 55.7297 22.2678ZM3.00068 42.4995V15.4999C3.00068 15.2249 3.22568 14.9999 3.50067 14.9999H39.5C39.775 14.9999 40 15.2249 40 15.4999V42.9995H21.2054C20.3424 40.1115 17.6644 37.9995 14.5005 37.9995C11.3365 37.9995 8.65858 40.1115 7.79559 42.9995H3.50067C3.22568 42.9995 3.00068 42.7745 3.00068 42.4995ZM14.5005 48.9993C12.2945 48.9993 10.5005 47.2054 10.5005 44.9994C10.5005 42.7935 12.2945 40.9995 14.5005 40.9995C16.7064 40.9995 18.5004 42.7935 18.5004 44.9994C18.5004 47.2054 16.7064 48.9993 14.5005 48.9993ZM51.9998 48.9993C49.7938 48.9993 47.9999 47.2054 47.9999 44.9994C47.9999 42.7935 49.7938 40.9995 51.9998 40.9995C54.2058 40.9995 55.9997 42.7935 55.9997 44.9994C55.9997 47.2054 54.2058 48.9993 51.9998 48.9993ZM60.4997 42.9995H58.7047C57.8417 40.1115 55.1638 37.9995 51.9998 37.9995C48.8359 37.9995 46.1579 40.1115 45.2949 42.9995H43V21.9998H45.9999V32.4996C45.9999 33.3276 46.6719 33.9996 47.4999 33.9996H60.9997V42.4995C60.9997 42.7745 60.7747 42.9995 60.4997 42.9995Z" fill="black"/>
</svg>

<svg xmlns="http://www.w3.org/2000/svg" width="64" height="64" fill="none" viewBox="0 0 64 64"><path fill="currentColor" d="M63.83 31.307 58.39 20.88A3.49 3.49 0 0 0 55.289 19H43v-3.5c0-1.93-1.57-3.5-3.5-3.5h-36C1.57 12 0 13.57 0 15.5v27C0 44.43 1.57 46 3.5 46h4.08c.489 3.385 3.402 6 6.92 6 3.52 0 6.432-2.615 6.92-6h23.66c.488 3.385 3.4 6 6.92 6s6.432-2.615 6.92-6h1.58c1.93 0 3.5-1.57 3.5-3.5V32c0-.241-.06-.48-.17-.693m-8.1-9.04L60.286 31H49v-9h6.288c.187 0 .356.103.442.268M3 42.5v-27c0-.274.226-.5.5-.5h36c.275 0 .5.226.5.5V43H21.205c-.863-2.888-3.54-5-6.704-5-3.165 0-5.842 2.112-6.705 5H3.5a.5.5 0 0 1-.5-.5M14.5 49c-2.206 0-4-1.794-4-4s1.794-4 4-4 4 1.794 4 4-1.794 4-4 4M52 49c-2.206 0-4-1.794-4-4s1.794-4 4-4 4 1.794 4 4-1.794 4-4 4m8.5-6h-1.795c-.863-2.888-3.541-5-6.705-5s-5.842 2.112-6.705 5H43V22h3v10.5a1.5 1.5 0 0 0 1.5 1.5H61v8.5a.5.5 0 0 1-.5.5"/></svg>
